X: 2
T: The Tolka
R: polka
M: 2/4
L: 1/8
K: Ador
|:e>f g |d e>f g |fd g>e| dc B(d|
d/2) c/2 B cg|de cA |B/2 c/2 B/2A/2 Gd|BA A2:|


Tune 1251	Setting 1251

